static/img/kroki/8b54508b95bd3cdcb219d2706cd8f3b4.svg

<?xml version="1.0" encoding="us-ascii" standalone="no"?><svg xmlns="http://www.w3.org/2000/svg" xmlns:xlink="http://www.w3.org/1999/xlink" contentStyleType="text/css" height="352px" preserveAspectRatio="none" style="width:965px;height:352px;" version="1.1" viewBox="0 0 965 352" width="965px" zoomAndPan="magnify"><defs/><g><!--class azure_dscp_configuration--><g id="elem_azure_dscp_configuration"><rect codeLine="22" fill="#3D176E" height="39.7891" id="azure_dscp_configuration" rx="2.5" ry="2.5" style="stroke:#000D19;stroke-width:0.5;" width="253" x="256" y="306.37"/><ellipse cx="271" cy="326.2645" fill="#ADD1B2" rx="11" ry="11" style="stroke:#181818;stroke-width:1.0;"/><path d="M273.9688,331.9052 Q273.3906,332.202 272.75,332.3427 Q272.1094,332.4989 271.4063,332.4989 Q268.9063,332.4989 267.5781,330.8583 Q266.2656,329.202 266.2656,326.077 Q266.2656,322.952 267.5781,321.2958 Q268.9063,319.6395 271.4063,319.6395 Q272.1094,319.6395 272.75,319.7958 Q273.4063,319.952 273.9688,320.2489 L273.9688,322.9677 Q273.3438,322.3895 272.75,322.1239 Q272.1563,321.8427 271.5313,321.8427 Q270.1875,321.8427 269.5,322.9208 Q268.8125,323.9833 268.8125,326.077 Q268.8125,328.1708 269.5,329.2489 Q270.1875,330.3114 271.5313,330.3114 Q272.1563,330.3114 272.75,330.0458 Q273.3438,329.7645 273.9688,329.1864 L273.9688,331.9052 Z " fill="#000000"/><text fill="#D9B8FF" font-family="Helvetica" font-size="17" lengthAdjust="spacing" textLength="211" x="290" y="332.1498">azure_dscp_configuration</text></g><!--class azure_network_interface--><g id="elem_azure_network_interface"><rect codeLine="24" fill="#3D176E" height="39.7891" id="azure_network_interface" rx="2.5" ry="2.5" style="stroke:#000D19;stroke-width:0.5;" width="250" x="257.5" y="206.58"/><ellipse cx="272.5" cy="226.4745" fill="#ADD1B2" rx="11" ry="11" style="stroke:#181818;stroke-width:1.0;"/><path d="M275.4688,232.1152 Q274.8906,232.412 274.25,232.5527 Q273.6094,232.7089 272.9063,232.7089 Q270.4063,232.7089 269.0781,231.0683 Q267.7656,229.412 267.7656,226.287 Q267.7656,223.162 269.0781,221.5058 Q270.4063,219.8495 272.9063,219.8495 Q273.6094,219.8495 274.25,220.0058 Q274.9063,220.162 275.4688,220.4589 L275.4688,223.1777 Q274.8438,222.5995 274.25,222.3339 Q273.6563,222.0527 273.0313,222.0527 Q271.6875,222.0527 271,223.1308 Q270.3125,224.1933 270.3125,226.287 Q270.3125,228.3808 271,229.4589 Q271.6875,230.5214 273.0313,230.5214 Q273.6563,230.5214 274.25,230.2558 Q274.8438,229.9745 275.4688,229.3964 L275.4688,232.1152 Z " fill="#000000"/><text fill="#D9B8FF" font-family="Helvetica" font-size="17" lengthAdjust="spacing" textLength="208" x="291.5" y="232.3598">azure_network_interface</text></g><!--class azure_network_security_group--><g id="elem_azure_network_security_group"><rect codeLine="26" fill="#3D176E" height="39.7891" id="azure_network_security_group" rx="2.5" ry="2.5" style="stroke:#000D19;stroke-width:0.5;" width="299" x="7" y="7"/><ellipse cx="22" cy="26.8945" fill="#ADD1B2" rx="11" ry="11" style="stroke:#181818;stroke-width:1.0;"/><path d="M24.9688,32.5352 Q24.3906,32.832 23.75,32.9727 Q23.1094,33.1289 22.4063,33.1289 Q19.9063,33.1289 18.5781,31.4883 Q17.2656,29.832 17.2656,26.707 Q17.2656,23.582 18.5781,21.9258 Q19.9063,20.2695 22.4063,20.2695 Q23.1094,20.2695 23.75,20.4258 Q24.4063,20.582 24.9688,20.8789 L24.9688,23.5977 Q24.3438,23.0195 23.75,22.7539 Q23.1563,22.4727 22.5313,22.4727 Q21.1875,22.4727 20.5,23.5508 Q19.8125,24.6133 19.8125,26.707 Q19.8125,28.8008 20.5,29.8789 Q21.1875,30.9414 22.5313,30.9414 Q23.1563,30.9414 23.75,30.6758 Q24.3438,30.3945 24.9688,29.8164 L24.9688,32.5352 Z " fill="#000000"/><text fill="#D9B8FF" font-family="Helvetica" font-size="17" lengthAdjust="spacing" textLength="257" x="41" y="32.7798">azure_network_security_group</text></g><!--class azure_private_link_service--><g id="elem_azure_private_link_service"><rect codeLine="28" fill="#3D176E" height="39.7891" id="azure_private_link_service" rx="2.5" ry="2.5" style="stroke:#000D19;stroke-width:0.5;" width="263" x="393" y="106.79"/><ellipse cx="408" cy="126.6845" fill="#ADD1B2" rx="11" ry="11" style="stroke:#181818;stroke-width:1.0;"/><path d="M410.9688,132.3252 Q410.3906,132.622 409.75,132.7627 Q409.1094,132.9189 408.4063,132.9189 Q405.9063,132.9189 404.5781,131.2783 Q403.2656,129.622 403.2656,126.497 Q403.2656,123.372 404.5781,121.7158 Q405.9063,120.0595 408.4063,120.0595 Q409.1094,120.0595 409.75,120.2158 Q410.4063,120.372 410.9688,120.6689 L410.9688,123.3877 Q410.3438,122.8095 409.75,122.5439 Q409.1563,122.2627 408.5313,122.2627 Q407.1875,122.2627 406.5,123.3408 Q405.8125,124.4033 405.8125,126.497 Q405.8125,128.5908 406.5,129.6689 Q407.1875,130.7314 408.5313,130.7314 Q409.1563,130.7314 409.75,130.4658 Q410.3438,130.1845 410.9688,129.6064 L410.9688,132.3252 Z " fill="#000000"/><text fill="#D9B8FF" font-family="Helvetica" font-size="17" lengthAdjust="spacing" textLength="221" x="427" y="132.5698">azure_private_link_service</text></g><!--class azure_virtual_machine--><g id="elem_azure_virtual_machine"><rect codeLine="30" fill="#3D176E" height="39.7891" id="azure_virtual_machine" rx="2.5" ry="2.5" style="stroke:#000D19;stroke-width:0.5;" width="233" x="125" y="106.79"/><ellipse cx="140" cy="126.6845" fill="#ADD1B2" rx="11" ry="11" style="stroke:#181818;stroke-width:1.0;"/><path d="M142.9688,132.3252 Q142.3906,132.622 141.75,132.7627 Q141.1094,132.9189 140.4063,132.9189 Q137.9063,132.9189 136.5781,131.2783 Q135.2656,129.622 135.2656,126.497 Q135.2656,123.372 136.5781,121.7158 Q137.9063,120.0595 140.4063,120.0595 Q141.1094,120.0595 141.75,120.2158 Q142.4063,120.372 142.9688,120.6689 L142.9688,123.3877 Q142.3438,122.8095 141.75,122.5439 Q141.1563,122.2627 140.5313,122.2627 Q139.1875,122.2627 138.5,123.3408 Q137.8125,124.4033 137.8125,126.497 Q137.8125,128.5908 138.5,129.6689 Q139.1875,130.7314 140.5313,130.7314 Q141.1563,130.7314 141.75,130.4658 Q142.3438,130.1845 142.9688,129.6064 L142.9688,132.3252 Z " fill="#000000"/><text fill="#D9B8FF" font-family="Helvetica" font-size="17" lengthAdjust="spacing" textLength="191" x="159" y="132.5698">azure_virtual_machine</text></g><!--class azure_virtual_network_tap--><g id="elem_azure_virtual_network_tap"><rect codeLine="32" fill="#3D176E" height="39.7891" id="azure_virtual_network_tap" rx="2.5" ry="2.5" style="stroke:#000D19;stroke-width:0.5;" width="267" x="691" y="106.79"/><ellipse cx="706" cy="126.6845" fill="#ADD1B2" rx="11" ry="11" style="stroke:#181818;stroke-width:1.0;"/><path d="M708.9688,132.3252 Q708.3906,132.622 707.75,132.7627 Q707.1094,132.9189 706.4063,132.9189 Q703.9063,132.9189 702.5781,131.2783 Q701.2656,129.622 701.2656,126.497 Q701.2656,123.372 702.5781,121.7158 Q703.9063,120.0595 706.4063,120.0595 Q707.1094,120.0595 707.75,120.2158 Q708.4063,120.372 708.9688,120.6689 L708.9688,123.3877 Q708.3438,122.8095 707.75,122.5439 Q707.1563,122.2627 706.5313,122.2627 Q705.1875,122.2627 704.5,123.3408 Q703.8125,124.4033 703.8125,126.497 Q703.8125,128.5908 704.5,129.6689 Q705.1875,130.7314 706.5313,130.7314 Q707.1563,130.7314 707.75,130.4658 Q708.3438,130.1845 708.9688,129.6064 L708.9688,132.3252 Z " fill="#000000"/><text fill="#D9B8FF" font-family="Helvetica" font-size="17" lengthAdjust="spacing" textLength="225" x="725" y="132.5698">azure_virtual_network_tap</text></g><!--link azure_network_interface to azure_dscp_configuration--><g id="link_azure_network_interface_azure_dscp_configuration"><path codeLine="34" d="M382.5,246.8 C382.5,263.94 382.5,282.85 382.5,299.99 " fill="none" id="azure_network_interface-to-azure_dscp_configuration" style="stroke:#1A83AF;stroke-width:2.0;"/><polygon fill="#1A83AF" points="382.5,305.99,386.5,296.99,382.5,300.99,378.5,296.99,382.5,305.99" style="stroke:#1A83AF;stroke-width:2.0;"/></g><!--link azure_network_security_group to azure_network_interface--><g id="link_azure_network_security_group_azure_network_interface"><path codeLine="35" d="M137.45,47.09 C115.18,71.91 84.16,115.6 107.5,146.58 C127.15,172.66 193.3018,191.5674 258.7018,204.9474 " fill="none" id="azure_network_security_group-to-azure_network_interface" style="stroke:#1A83AF;stroke-width:2.0;"/><polygon fill="#1A83AF" points="264.58,206.15,256.5644,200.4273,259.6815,205.1478,254.9609,208.2649,264.58,206.15" style="stroke:#1A83AF;stroke-width:2.0;"/></g><!--link azure_network_security_group to azure_virtual_machine--><g id="link_azure_network_security_group_azure_virtual_machine"><path codeLine="36" d="M173.29,47.22 C188.19,64.36 205.9138,84.7516 220.8038,101.8816 " fill="none" id="azure_network_security_group-to-azure_virtual_machine" style="stroke:#1A83AF;stroke-width:2.0;"/><polygon fill="#1A83AF" points="224.74,106.41,221.8546,96.9933,221.4598,102.6364,215.8168,102.2416,224.74,106.41" style="stroke:#1A83AF;stroke-width:2.0;"/></g><!--link azure_private_link_service to azure_network_interface--><g id="link_azure_private_link_service_azure_network_interface"><path codeLine="37" d="M496.45,147.01 C471.55,164.15 440.3104,185.6552 415.4404,202.7952 " fill="none" id="azure_private_link_service-to-azure_network_interface" style="stroke:#1A83AF;stroke-width:2.0;"/><polygon fill="#1A83AF" points="410.5,206.2,420.1804,204.3863,414.617,203.3627,415.6407,197.7992,410.5,206.2" style="stroke:#1A83AF;stroke-width:2.0;"/></g><!--link azure_virtual_machine to azure_network_interface--><g id="link_azure_virtual_machine_azure_network_interface"><path codeLine="38" d="M269.36,147.01 C294.08,164.15 325.0706,185.6393 349.7706,202.7793 " fill="none" id="azure_virtual_machine-to-azure_network_interface" style="stroke:#1A83AF;stroke-width:2.0;"/><polygon fill="#1A83AF" points="354.7,206.2,349.5863,197.7827,350.5922,203.3495,345.0254,204.3553,354.7,206.2" style="stroke:#1A83AF;stroke-width:2.0;"/></g><!--link azure_virtual_network_tap to azure_network_interface--><g id="link_azure_virtual_network_tap_azure_network_interface"><path codeLine="39" d="M736.91,147.07 C659.52,164.19 553.1083,187.7338 475.7783,204.8438 " fill="none" id="azure_virtual_network_tap-to-azure_network_interface" style="stroke:#1A83AF;stroke-width:2.0;"/><polygon fill="#1A83AF" points="469.92,206.14,479.5716,208.1012,474.8019,205.0598,477.8433,200.2901,469.92,206.14" style="stroke:#1A83AF;stroke-width:2.0;"/></g><!--SRC=[dP1DJm8n48Rl_8ecd4b0ei35P2KXUY56l1cp6TefDBlRRgQp433-TraHKtPP4AzzdxuVipGA1MOvRqI6sHp9jtnYR0u4cOY8t7hiKaUYhJNe_g0gJfpbYy0KCXIFcAwGZOGgyReqCh7elRW9f0UGoO9SOTNUdWcitqbeEQ36ANWVCPEP5un16JMQ3xMkabNJTb_r1dTOmnmff1-as-sgtgYAN8mwk_kNc9ajYbvujAbZhDMiHNnJPrkMH52oDlIWDtPy1gMCNOZRuErbtuaiqj7xR0dAhKjQG-h36Cz8w7YJuxYs2aT3fGSduQScM9QN4x0j26FbPHvBPxLP50Hid1KVhSyZn2Al7IMniJjh3H8R2O-o8CERk4pDQrXEPWMCSMfioTBAdF1Q6U82qZW3kJIsMJzaCko3chfstjgzQDYF9k-T-yRDhRCxJbZKSgvsgEnidJdH5VdLw_tZQtZOltp_0W00]--></g></svg>

<svg xmlns="http://www.w3.org/2000/svg" width="965" height="352" viewBox="0 0 965 352"><rect width="253" height="39.789" x="256" y="306.37" fill="#3D176E" rx="2.5" ry="2.5" style="stroke:#000d19;stroke-width:.5"/><circle cx="271" cy="326.264" r="11" fill="#ADD1B2" style="stroke:#181818;stroke-width:1"/><path d="M273.969 331.905q-.578.297-1.219.438-.64.156-1.344.156-2.5 0-3.828-1.64-1.312-1.657-1.312-4.782t1.312-4.781q1.328-1.656 3.828-1.656.703 0 1.344.156.656.156 1.219.453v2.719q-.625-.579-1.219-.844-.594-.281-1.219-.281-1.344 0-2.031 1.078-.687 1.062-.687 3.156t.687 3.172q.688 1.062 2.031 1.062.625 0 1.219-.265.594-.281 1.219-.86z"/><text x="290" y="332.15" fill="#D9B8FF" font-family="Helvetica" font-size="17" textLength="211">azure_dscp_configuration</text><rect width="250" height="39.789" x="257.5" y="206.58" fill="#3D176E" rx="2.5" ry="2.5" style="stroke:#000d19;stroke-width:.5"/><circle cx="272.5" cy="226.475" r="11" fill="#ADD1B2" style="stroke:#181818;stroke-width:1"/><path d="M275.469 232.115q-.578.297-1.219.438-.64.156-1.344.156-2.5 0-3.828-1.64-1.312-1.657-1.312-4.782t1.312-4.781q1.328-1.656 3.828-1.656.703 0 1.344.156.656.156 1.219.453v2.719q-.625-.578-1.219-.844-.594-.281-1.219-.281-1.344 0-2.031 1.078-.687 1.062-.687 3.156t.687 3.172q.688 1.062 2.031 1.062.625 0 1.219-.265.594-.281 1.219-.86z"/><text x="291.5" y="232.36" fill="#D9B8FF" font-family="Helvetica" font-size="17" textLength="208">azure_network_interface</text><rect width="299" height="39.789" x="7" y="7" fill="#3D176E" rx="2.5" ry="2.5" style="stroke:#000d19;stroke-width:.5"/><circle cx="22" cy="26.895" r="11" fill="#ADD1B2" style="stroke:#181818;stroke-width:1"/><path d="M24.969 32.535q-.578.297-1.219.438-.64.156-1.344.156-2.5 0-3.828-1.64-1.312-1.657-1.312-4.782t1.312-4.781q1.328-1.656 3.828-1.656.703 0 1.344.156.656.156 1.219.453v2.719q-.625-.578-1.219-.844-.594-.281-1.219-.281-1.343 0-2.031 1.078-.687 1.062-.687 3.156t.687 3.172q.688 1.062 2.031 1.062.625 0 1.219-.265.594-.281 1.219-.86z"/><text x="41" y="32.78" fill="#D9B8FF" font-family="Helvetica" font-size="17" textLength="257">azure_network_security_group</text><rect width="263" height="39.789" x="393" y="106.79" fill="#3D176E" rx="2.5" ry="2.5" style="stroke:#000d19;stroke-width:.5"/><circle cx="408" cy="126.684" r="11" fill="#ADD1B2" style="stroke:#181818;stroke-width:1"/><path d="M410.969 132.325q-.578.297-1.219.438-.64.156-1.344.156-2.5 0-3.828-1.64-1.312-1.657-1.312-4.782t1.312-4.781q1.328-1.656 3.828-1.656.703 0 1.344.156.656.156 1.219.453v2.719q-.625-.579-1.219-.844-.594-.281-1.219-.281-1.344 0-2.031 1.078-.687 1.062-.687 3.156t.687 3.172q.688 1.062 2.031 1.062.625 0 1.219-.265.594-.281 1.219-.86z"/><text x="427" y="132.57" fill="#D9B8FF" font-family="Helvetica" font-size="17" textLength="221">azure_private_link_service</text><rect width="233" height="39.789" x="125" y="106.79" fill="#3D176E" rx="2.5" ry="2.5" style="stroke:#000d19;stroke-width:.5"/><circle cx="140" cy="126.684" r="11" fill="#ADD1B2" style="stroke:#181818;stroke-width:1"/><path d="M142.969 132.325q-.578.297-1.219.438-.64.156-1.344.156-2.5 0-3.828-1.64-1.312-1.657-1.312-4.782t1.312-4.781q1.328-1.656 3.828-1.656.703 0 1.344.156.656.156 1.219.453v2.719q-.625-.579-1.219-.844-.594-.281-1.219-.281-1.344 0-2.031 1.078-.687 1.062-.687 3.156t.687 3.172q.688 1.062 2.031 1.062.625 0 1.219-.265.594-.281 1.219-.86z"/><text x="159" y="132.57" fill="#D9B8FF" font-family="Helvetica" font-size="17" textLength="191">azure_virtual_machine</text><rect width="267" height="39.789" x="691" y="106.79" fill="#3D176E" rx="2.5" ry="2.5" style="stroke:#000d19;stroke-width:.5"/><circle cx="706" cy="126.684" r="11" fill="#ADD1B2" style="stroke:#181818;stroke-width:1"/><path d="M708.969 132.325q-.578.297-1.219.438-.64.156-1.344.156-2.5 0-3.828-1.64-1.312-1.657-1.312-4.782t1.312-4.781q1.328-1.656 3.828-1.656.703 0 1.344.156.656.156 1.219.453v2.719q-.625-.579-1.219-.844-.594-.281-1.219-.281-1.343 0-2.031 1.078-.687 1.062-.687 3.156t.687 3.172q.688 1.062 2.031 1.062.625 0 1.219-.265.594-.281 1.219-.86z"/><text x="725" y="132.57" fill="#D9B8FF" font-family="Helvetica" font-size="17" textLength="225">azure_virtual_network_tap</text><path fill="none" d="M382.5 246.8v53.19" style="stroke:#1a83af;stroke-width:2"/><path fill="#1A83AF" d="m382.5 305.99 4-9-4 4-4-4z" style="stroke:#1a83af;stroke-width:2"/><path fill="none" d="M137.45 47.09c-22.27 24.82-53.29 68.51-29.95 99.49 19.65 26.08 85.802 44.987 151.202 58.367" style="stroke:#1a83af;stroke-width:2"/><path fill="#1A83AF" d="m264.58 206.15-8.016-5.723 3.118 4.72-4.721 3.118z" style="stroke:#1a83af;stroke-width:2"/><path fill="none" d="M173.29 47.22c14.9 17.14 32.624 37.532 47.514 54.662" style="stroke:#1a83af;stroke-width:2"/><path fill="#1A83AF" d="m224.74 106.41-2.885-9.417-.395 5.643-5.643-.394z" style="stroke:#1a83af;stroke-width:2"/><path fill="none" d="M496.45 147.01c-24.9 17.14-56.14 38.645-81.01 55.785" style="stroke:#1a83af;stroke-width:2"/><path fill="#1A83AF" d="m410.5 206.2 9.68-1.814-5.563-1.023 1.024-5.564z" style="stroke:#1a83af;stroke-width:2"/><path fill="none" d="M269.36 147.01c24.72 17.14 55.71 38.63 80.41 55.77" style="stroke:#1a83af;stroke-width:2"/><path fill="#1A83AF" d="m354.7 206.2-5.114-8.417 1.006 5.567-5.567 1.005z" style="stroke:#1a83af;stroke-width:2"/><path fill="none" d="M736.91 147.07c-77.39 17.12-183.802 40.664-261.132 57.774" style="stroke:#1a83af;stroke-width:2"/><path fill="#1A83AF" d="m469.92 206.14 9.652 1.961-4.77-3.041 3.041-4.77z" style="stroke:#1a83af;stroke-width:2"/></svg>
